icons/page-separator.svg

<svg xmlns="http://www.w3.org/2000/svg" width="24" height="24" fill="none"><g clip-path="url(#a)"><g><path fill="#121212" d="M17 21V17H7V21H5V16C5 15.7348 5.10536 15.4804 5.29289 15.2929C5.48043 15.1054 5.73478 15 6 15H18C18.2652 15 18.5196 15.1054 18.7071 15.2929C18.8946 15.4804 19 15.7348 19 16V21H17ZM7 3V7H17V3H19V8C19 8.26522 18.8946 8.51957 18.7071 8.70711C18.5196 8.89464 18.2652 9 18 9H6C5.73478 9 5.48043 8.89464 5.29289 8.70711C5.10536 8.51957 5 8.26522 5 8V3H7ZM2 9L6 12L2 15V9ZM22 9V15L18 12L22 9Z"/></g></g><defs><clipPath id="a"><rect width="24" height="24" fill="white"/></clipPath></defs></svg>

<svg width="24" height="24" fill="none" xmlns="http://www.w3.org/2000/svg"><g clip-path="url(#a)"><path d="M17 21v-4H7v4H5v-5a1 1 0 0 1 1-1h12a1 1 0 0 1 1 1v5h-2ZM7 3v4h10V3h2v5a1 1 0 0 1-1 1H6a1 1 0 0 1-1-1V3h2ZM2 9l4 3-4 3V9Zm20 0v6l-4-3 4-3Z" /></g><defs><clipPath id="a"><path fill="#fff" d="M0 0h24v24H0z"/></clipPath></defs></svg>
